X:1
T:Title
%%score { ( 1 3 ) | ( 2 4 ) }
L:1/8
Q:1/4=84
M:6/8
K:F
V:1 treble nm="Grand Piano"
V:3 treble 
V:2 bass 
V:4 bass 
V:1
 AGF C2 F | FED E3 | [DEB][DEB][CEA] [B,EG]2 [CEA] | F2- [F-G] [FA]3 | AGF C2 F | FED E3 | %6
w: Chas.~H.~Gabriel * * * *||||||
 [DEB][DEB][CEA] [B,EG]2 [CEA] | [A,CF]6 | [Fd][Fd][Fd] .[Fd]2 [DFB] | Acc c3 | %10
w: ||||
 [GB][GB][GB] [GB][FA][EG] | AAB c3 | [Fd][Fd][Fd] .[Fd]2 [DFB] | Acc c3 | %14
w: ||||
 [Ec][EG][FA] [DB]A[B,CG] | [A,CF]6 | .A6 | z CB B3 | B-[EB-][EB-] [DEB][CEA]G | z CA A3 | %20
w: ||||||
 cdc cAF | [Fd][Fd][Fd] [Fc]3 | [Ec][EG][FA] [DB]AG | F6 |] %24
w: ||||
V:2
 [F,CF][F,B,C][F,A,C] [F,A,]2 [F,A,C] | [G,B,C][G,B,C][G,B,C] [G,B,C]3 | C,C,C, C,2 C, | %3
 z2 B, .C3 | [F,CF][F,B,C][F,A,C] [F,A,]2 [F,A,C] | [G,B,C][G,B,C][G,B,C] [G,B,C]3 | %6
 C,C,C, C,2 C, | F,6 | [B,,B,][B,,B,][B,,B,] z[K:treble] c[K:bass]B,, | %9
 [F,CF][F,A,F][F,A,F] [F,A,F]3 | [C,C][C,C][C,C] [C,C]2 [C,C] | [F,CF][F,CF][F,G,F] [F,A,F]3 | %12
 [B,,B,][B,,B,][B,,B,] z[K:treble] c[K:bass]B,, | [F,CF][F,A,F][F,A,F] [F,A,F]3 | %14
 [C,G,][C,C][C,C] z CC, | F,,6 | [F,CF][F,C][F,C] [F,C][F,B,F][F,A,C] | %17
 [G,B,C][G,B,][G,CE] [G,CE]3 | [C,C][C,C][C,C] C,C,[C,B,C] | [F,A,C][F,A,][F,CF] [F,CF]3 | %20
 [F,A,F][F,B,F][F,A,F] [F,A,F][F,CF][F,A,] | [B,,B,][B,,B,][D,B,] [F,A,]3 | %22
 [C,G,][C,C][C,C] z C[E,B,C] | [F,,F,]2 [F,,F,] .[F,,F,]3 |] %24
V:3
 x6 | x6 | x6 | .A,3 z3 | x6 | x6 | x6 | x6 | x6 | x6 | x6 | x6 | x6 | x6 | z3 .E3 | x6 | %16
 z FF FGF | .E3 z3 | .E3 z3 | .F3 z3 | x6 | x6 | z3 .E3 | [A,C]2 [B,D] .[A,C]3 |] %24
V:4
 x6 | x6 | x6 | F,6 | x6 | x6 | x6 | x6 | z3 .[B,,B,]3[K:treble][K:bass] | x6 | x6 | x6 | %12
 z3 .[B,,B,]3[K:treble][K:bass] | x6 | z3 .C,3 | x6 | x6 | x6 | x6 | x6 | x6 | x6 | z3 .C,3 | x6 |] %24

